X: 1622
T: Anne Fraser MacKenzie
R: jig
M: 6/8
K: Gmajor
|:D|G2G FGA|G2G AFD|B2B ABc|dcB A2D|
G2G FGA|B2B cBc|dBG DEF|G3 G2:|
|:B|d2B g2g|e2c ABc|BAG dcB|ABc def|
g2g fge|dcB cBA|dcB DEF|G3 G2:|

